X: 58
T:Golden Slippers
M:C|
L:1/8
R:reel
P:Golden Slippers
Z:bil@blueskiesink.com
K:G
GA |: "G"B2B2 BAGA | B2B2 B2GA | B2B2 c3B | "D7"B2A2 A2FG |  A2A2 AGFG |
 A2A2 A2FG | A2c2 B2A2 | "G"A2G6 :||| "G"D6 G2 | B2A2 G2F2 | "C"E6 G2 |
"Am"c2B2 A2G2 | "D7"F3D F2G2 |1 A2A2 A2D2 | "G"G2D2 G2A2 | B8 :|2 A2A2 A
2c2 | B3c B2A2 | "G"G8 |]

